icons/outline/adjustments-horizontal.svg

<svg width="24" height="24" viewBox="0 0 24 24" fill="none" xmlns="http://www.w3.org/2000/svg">
<path d="M10.5 6L20.25 6M10.5 6C10.5 6.82843 9.82843 7.5 9 7.5C8.17157 7.5 7.5 6.82843 7.5 6M10.5 6C10.5 5.17157 9.82843 4.5 9 4.5C8.17157 4.5 7.5 5.17157 7.5 6M3.75 6H7.5M10.5 18H20.25M10.5 18C10.5 18.8284 9.82843 19.5 9 19.5C8.17157 19.5 7.5 18.8284 7.5 18M10.5 18C10.5 17.1716 9.82843 16.5 9 16.5C8.17157 16.5 7.5 17.1716 7.5 18M3.75 18L7.5 18M16.5 12L20.25 12M16.5 12C16.5 12.8284 15.8284 13.5 15 13.5C14.1716 13.5 13.5 12.8284 13.5 12M16.5 12C16.5 11.1716 15.8284 10.5 15 10.5C14.1716 10.5 13.5 11.1716 13.5 12M3.75 12H13.5" stroke="#0F172A" stroke-width="1.5" stroke-linecap="round" stroke-linejoin="round"/>
</svg>

<svg xmlns="http://www.w3.org/2000/svg" fill="none" viewBox="0 0 24 24" stroke-width="1.5" stroke="currentColor" aria-hidden="true">
  <path stroke-linecap="round" stroke-linejoin="round" d="M10.5 6h9.75M10.5 6a1.5 1.5 0 11-3 0m3 0a1.5 1.5 0 10-3 0M3.75 6H7.5m3 12h9.75m-9.75 0a1.5 1.5 0 01-3 0m3 0a1.5 1.5 0 00-3 0m-3.75 0H7.5m9-6h3.75m-3.75 0a1.5 1.5 0 01-3 0m3 0a1.5 1.5 0 00-3 0m-9.75 0h9.75"/>
</svg>
